X: 2298
T: CALEDONIAN LADDIE
R: Hornpipe.
%R: hornpipe, reel
B: James Kerr "Merry Melodies" v.2 p.32 #298
Z: 2016 John Chambers <jc:trillian.mit.edu>
M: C
L: 1/8
K: D
FE !segno!|:\
D3E FEFA | BABd e2f2 | dcBA \
[1 GBFA | G2E2 EGFE :|[2 GBEG | F2D2D2 ::\
(de) |\
f2f2 gfed |
cdec A2(Bc) |\
d2B2 Bcde | f2B2 B2d2 |\
A3B AFED | gfge fefd |\
edcB ABde | f2d2d2 :|
